X: 189
T: Sleepy Reel 
N: 190016
C: BB
R: reel
Q: 1/8=380
M: 4/4
L: 1/8
K: Ador
cB|"Am"AEEG "C"cBcd|"Am"eAAB "Am7"AGEG|"C"cdeg "Am"a2 bg|"Em"efge "G"dBcB|
"Am"AEEG "C"cBcd|"Am"eAAB "Am7"AGEG|"Am"eAcA "D"agfd|"Am"cA"G"BG "Am"A2 :|
cd|"Am"eaaf "G"g2 fg|"Em"ebbg "Am"a2 ga|"Em"bage "G"dBGB|"Am"cA"G"BG "Am"ABcd|
"Am"eaaf "G"g2 fg|"Em"ebbg "Am"a2 ag|"Am"eAcA "D"agfd|"Am"cA"G"BG "Am"A2 :|
%%%%%%%%%%%%%%%%%%%%%%%%%%%%%%%%%%%%%%%%%%%
